src/topics/icons/blossom.svg

<svg height="256" preserveAspectRatio="xMidYMid" viewBox="0 0 256 256" width="256" xmlns="http://www.w3.org/2000/svg"><g fill="#122941"><path d="m127.75619 62.6660136c-21.278766 19.3004263-33.8546934 55.2077644-35.9537773 77.9122354 5.9675283 4.690431 11.7400093 10.007801 17.6843173 16.170377 1.439637 1.309605 10.174984 9.506249 18.278748 23.029551 8.113053-13.518658 16.839112-21.719946 18.278749-23.029551 5.944308-6.162576 11.712145-11.479946 17.679673-16.170377-2.103728-22.709115-14.679655-58.6164531-35.96771-77.9122354"/><path d="m153.386376 164.076844-.292571.278639c-.273995.246132-26.939791 24.497052-29.419683 60.743401 19.76947-1.346757 40.839257-8.865378 43.272708-9.757025 45.139592-22.523356 54.859465-60.970957 54.269678-91.519129-30.664272 9.36693-48.320726 19.973805-67.830132 40.254114"/><path d="m121.969778 190.789079c-8.51708-16.467591-19.356154-26.271056-19.532626-26.433596l-.292572-.278639c-19.5094054-20.280309-37.1705029-30.887184-67.830131-40.254114-.5944309 30.548172 9.1300861 68.995773 54.265034 91.519129 1.6671927.608363 12.120816 4.346776 24.901079 7.068155 1.05883-11.930413 4.365352-22.560508 8.489216-31.620935"/><path d="m127.765478 19.0496508c-60.2093419 0-109.1895143 48.9801723-109.1895143 109.1848712 0 60.209342 48.9801724 109.189514 109.1895143 109.189514 60.204699 0 109.184871-48.980172 109.184871-109.189514 0-60.2046989-48.980172-109.1848712-109.184871-109.1848712zm0 236.9503492c-70.4493419 0-127.765478-57.316136-127.765478-127.765478 0-70.4493429 57.3161361-127.76083492 127.765478-127.76083492 70.449343 0 127.760835 57.31149202 127.760835 127.76083492 0 70.449342-57.311492 127.765478-127.760835 127.765478z"/></g></svg>

<?xml version="1.0" encoding="UTF-8" standalone="no"?>
<svg width="256px" height="256px" viewBox="0 0 256 256" version="1.1" xmlns="http://www.w3.org/2000/svg" xmlns:xlink="http://www.w3.org/1999/xlink" preserveAspectRatio="xMidYMid">
	<g fill="#122941">
		<path d="M127.75619,62.6660136 C106.477424,81.9664399 93.9014966,117.873778 91.8024127,140.578249 C97.769941,145.26868 103.542422,150.58605 109.48673,156.748626 C110.926367,158.058231 119.661714,166.254875 127.765478,179.778177 C135.878531,166.259519 144.60459,158.058231 146.044227,156.748626 C151.988535,150.58605 157.756372,145.26868 163.7239,140.578249 C161.620172,117.869134 149.044245,81.9617959 127.75619,62.6660136"></path>
		<path d="M153.386376,164.076844 L153.093805,164.355483 C152.81981,164.601615 126.154014,188.852535 123.674122,225.098884 C143.443592,223.752127 164.513379,216.233506 166.94683,215.341859 C212.086422,192.818503 221.806295,154.370902 221.216508,123.82273 C190.552236,133.18966 172.895782,143.796535 153.386376,164.076844"></path>
		<path d="M121.969778,190.789079 C113.452698,174.321488 102.613624,164.518023 102.437152,164.355483 L102.14458,164.076844 C82.6351746,143.796535 64.9740771,133.18966 34.314449,123.82273 C33.7200181,154.370902 43.4445351,192.818503 88.579483,215.341859 C90.2466757,215.950222 100.700299,219.688635 113.480562,222.410014 C114.539392,210.479601 117.845914,199.849506 121.969778,190.789079"></path>
		<path d="M127.765478,19.0496508 C67.5561361,19.0496508 18.5759637,68.0298231 18.5759637,128.234522 C18.5759637,188.443864 67.5561361,237.424036 127.765478,237.424036 C187.970177,237.424036 236.950349,188.443864 236.950349,128.234522 C236.950349,68.0298231 187.970177,19.0496508 127.765478,19.0496508 L127.765478,19.0496508 L127.765478,19.0496508 Z M127.765478,256 C57.3161361,256 0,198.683864 0,128.234522 C0,57.7851791 57.3161361,0.473687075 127.765478,0.473687075 C198.214821,0.473687075 255.526313,57.7851791 255.526313,128.234522 C255.526313,198.683864 198.214821,256 127.765478,256 L127.765478,256 L127.765478,256 Z"></path>
	</g>
</svg>
